src/svg/uf2c7-thermometer,thermometer-4,thermometer-full.svg

<!-- Generated by IcoMoon.io -->
<svg version="1.1" xmlns="http://www.w3.org/2000/svg" width="18" height="32" viewBox="0 0 18 32">
<path d="M11.429 24c0 1.893-1.536 3.429-3.429 3.429s-3.429-1.536-3.429-3.429c0-1.429 0.893-2.732 2.286-3.232v-16.196h2.286v16.196c1.393 0.5 2.286 1.804 2.286 3.232zM13.714 24c0-1.875-0.893-3.518-2.286-4.571v-13.714c0-1.893-1.536-3.429-3.429-3.429s-3.429 1.536-3.429 3.429v13.714c-1.393 1.054-2.286 2.696-2.286 4.571 0 3.161 2.554 5.714 5.714 5.714s5.714-2.554 5.714-5.714zM16 24c0 4.411-3.589 8-8 8s-8-3.589-8-8c0-2.179 0.875-4.143 2.286-5.589v-12.696c0-3.161 2.554-5.714 5.714-5.714s5.714 2.554 5.714 5.714v12.696c1.411 1.446 2.286 3.411 2.286 5.589zM18.286 13.714v2.286h-3.429v-2.286h3.429zM18.286 9.143v2.286h-3.429v-2.286h3.429zM18.286 4.571v2.286h-3.429v-2.286h3.429z"></path>
</svg>

<svg xmlns="http://www.w3.org/2000/svg" width="18" height="32"><path d="M11.429 24a3.43 3.43 0 0 1-6.858 0c0-1.429.893-2.732 2.286-3.232V4.572h2.286v16.196A3.436 3.436 0 0 1 11.429 24zm2.285 0a5.697 5.697 0 0 0-2.286-4.571V5.715a3.43 3.43 0 0 0-6.858 0v13.714A5.699 5.699 0 0 0 2.284 24c0 3.161 2.554 5.714 5.714 5.714S13.712 27.16 13.712 24zM16 24c0 4.411-3.589 8-8 8s-8-3.589-8-8a7.97 7.97 0 0 1 2.286-5.589V5.715C2.286 2.554 4.84.001 8 .001s5.714 2.554 5.714 5.714v12.696A7.972 7.972 0 0 1 16 24zm2.286-10.286V16h-3.429v-2.286h3.429zm0-4.571v2.286h-3.429V9.143h3.429zm0-4.572v2.286h-3.429V4.571h3.429z"/></svg>
